F[BALLADE
CUT[Die dienende Schwester
    Es war einmal ein Maegdelein,]
CNR[das wollt so gern eine Dienstmagd sein.]
REG[Mitteleuropa, Deutschland (BRD) , Rheinland]
SRC[4, S. 118
    ????]
KEY[Q0075w 16  F 3/4]
MEL[5_5_5_  +1__7_7_7_6_  +1__0_
    4_4_36  6__5_5_4_5_  3__0_
    5_5_5_  +1__7_7_7_6_  +1__0_
    4_4_36  6__5_5_4_5_  3__0_
    1_1_3_  5__4_3_5_5_  2__0_
    2_4422  6__5_5_4_5_  3__0_ //] >>
FCT[Ballade, Adelige als Dienstmagd, Tod; Kinder - Spiel, Tanz]
